assets/illustrations/screens/Screen-blipchat.svg

<svg width="488" height="328" fill="none" xmlns="http://www.w3.org/2000/svg"><path d="M24 36c0-6.627 5.373-12 12-12h408c6.627 0 12 5.373 12 12v20H24V36Z" fill="#E7EDF4"/><rect x="140" y="32" width="200" height="16" rx="8" fill="#D2DFE6"/><rect x="24" y="56" width="432" height="224" rx="12" fill="#F3F6FA"/><rect x="72" y="104" width="48" height="6" rx="3" fill="#00C6D7"/><rect x="72" y="114" width="88" height="6" rx="3" fill="#00C6D7"/><rect x="72" y="124" width="64" height="6" rx="3" fill="#00C6D7"/><rect x="72" y="146" width="64" height="6" rx="3" fill="#B9CBD3"/><rect x="72" y="156" width="88" height="6" rx="3" fill="#B9CBD3"/><rect x="72" y="166" width="48" height="6" rx="3" fill="#B9CBD3"/><rect x="72" y="176" width="24" height="6" rx="3" fill="#B9CBD3"/><rect x="72" y="198" width="64" height="6" rx="3" fill="#B9CBD3"/><rect x="72" y="208" width="88" height="6" rx="3" fill="#B9CBD3"/><rect x="72" y="218" width="48" height="6" rx="3" fill="#B9CBD3"/><rect x="72" y="228" width="24" height="6" rx="3" fill="#B9CBD3"/><g filter="url(#screen-blipchat__a)"><path d="M248 108c0-8.837 7.163-16 16-16h136c8.837 0 16 7.163 16 16v24H248v-24Z" fill="#00C6D7"/><rect x="256" y="100" width="24" height="24" rx="12" fill="#fff"/><path d="M273.16 108.32h-2a2.314 2.314 0 0 0-.68-1.64 2.314 2.314 0 0 0-1.64-.68h-1.66a2.32 2.32 0 0 0-2.32 2.32h-2a1.491 1.491 0 0 0-1.078.434 1.507 1.507 0 0 0-.449 1.073v6.613c0 .4.159.783.442 1.065.282.283.665.442 1.065.442h10.32c.4 0 .783-.159 1.065-.442.283-.282.442-.665.442-1.065v-6.613a1.507 1.507 0 0 0-1.507-1.507Zm-7.3 0a1.333 1.333 0 0 1 1.333-1.333h1.64a1.333 1.333 0 0 1 1.334 1.333h-4.314.007Zm-3.02 1h10.32a.506.506 0 0 1 .507.507v2.113l-3.14 1.047a8.716 8.716 0 0 1-5.107.093l-3.087-.907v-2.346a.508.508 0 0 1 .507-.507Zm10.32 7.627h-10.32a.507.507 0 0 1-.507-.507v-3.227l2.814.807c.866.25 1.764.378 2.666.38a9.7 9.7 0 0 0 3.014-.48l2.84-.933v3.446a.525.525 0 0 1-.146.363.504.504 0 0 1-.361.151Z" fill="#00C6D7"/><rect x="288" y="108" width="80" height="8" rx="4" fill="#fff"/><path d="M248 132h168v156c0 8.837-7.163 16-16 16H264c-8.837 0-16-7.163-16-16V132Z" fill="#fff"/><path d="M256 152c0-6.627 5.373-12 12-12h72c6.627 0 12 5.373 12 12v8c0 6.627-5.373 12-12 12h-84v-20Z" fill="#E7EDF4"/><rect x="264" y="148" width="80" height="6" rx="3" fill="#8CA0B3"/><rect x="264" y="158" width="33" height="6" rx="3" fill="#8CA0B3"/><path d="M256 180h100c6.627 0 12 5.373 12 12v52c0 6.627-5.373 12-12 12h-88c-6.627 0-12-5.373-12-12v-64Z" fill="#E7EDF4"/><rect x="272" y="196" width="56" height="6" rx="3" fill="#8CA0B3"/><path opacity=".25" d="M272 218h80" stroke="#8CA0B3" stroke-linecap="round"/><rect x="272" y="234" width="80" height="6" rx="3" fill="#8CA0B3"/><rect x="256" y="272" width="152" height="24" rx="6" fill="#F3F6FA"/><rect x="424" y="264" width="40" height="40" rx="20" fill="#00C6D7"/><path d="m444.999 283.914 5.62-5.62a.762.762 0 0 0-.02-1.08.76.76 0 0 0-1.08.02l-5.62 5.62-5.62-5.62a.749.749 0 0 0-1.06 1.06l5.62 5.62-5.62 5.62a.75.75 0 0 0 1.06 1.06l5.62-5.58 5.62 5.62a.754.754 0 0 0 1.06 0 .749.749 0 0 0 0-1.06l-5.58-5.66Z" fill="#fff"/></g><defs><filter id="screen-blipchat__a" x="224" y="84" width="280" height="244" filterUnits="userSpaceOnUse" color-interpolation-filters="sRGB"><feFlood flood-opacity="0" result="BackgroundImageFix"/><feColorMatrix in="SourceAlpha" values="0 0 0 0 0 0 0 0 0 0 0 0 0 0 0 0 0 0 127 0" result="hardAlpha"/><feOffset dx="8" dy="8"/><feGaussianBlur stdDeviation="8"/><feColorMatrix values="0 0 0 0 0.536667 0 0 0 0 0.584274 0 0 0 0 0.670833 0 0 0 0.25 0"/><feBlend in2="BackgroundImageFix" result="effect1_dropShadow_12035_6914"/><feBlend in="SourceGraphic" in2="effect1_dropShadow_12035_6914" result="shape"/></filter></defs></svg>

<svg width="488" height="328" viewBox="0 0 488 328" fill="none" xmlns="http://www.w3.org/2000/svg">
<path d="M24 36C24 29.3726 29.3726 24 36 24H444C450.627 24 456 29.3726 456 36V56H24V36Z" fill="#E7EDF4"/>
<rect x="140" y="32" width="200" height="16" rx="8" fill="#D2DFE6"/>
<rect x="24" y="56" width="432" height="224" rx="12" fill="#F3F6FA"/>
<rect x="72" y="104" width="48" height="6" rx="3" fill="#00C6D7"/>
<rect x="72" y="114" width="88" height="6" rx="3" fill="#00C6D7"/>
<rect x="72" y="124" width="64" height="6" rx="3" fill="#00C6D7"/>
<rect x="72" y="146" width="64" height="6" rx="3" fill="#B9CBD3"/>
<rect x="72" y="156" width="88" height="6" rx="3" fill="#B9CBD3"/>
<rect x="72" y="166" width="48" height="6" rx="3" fill="#B9CBD3"/>
<rect x="72" y="176" width="24" height="6" rx="3" fill="#B9CBD3"/>
<rect x="72" y="198" width="64" height="6" rx="3" fill="#B9CBD3"/>
<rect x="72" y="208" width="88" height="6" rx="3" fill="#B9CBD3"/>
<rect x="72" y="218" width="48" height="6" rx="3" fill="#B9CBD3"/>
<rect x="72" y="228" width="24" height="6" rx="3" fill="#B9CBD3"/>
<g filter="url(#filter0_d_12035_6914)">
<path d="M248 108C248 99.1634 255.163 92 264 92H400C408.837 92 416 99.1634 416 108V132H248V108Z" fill="#00C6D7"/>
<rect x="256" y="100" width="24" height="24" rx="12" fill="white"/>
<path d="M273.16 108.32H271.16C271.16 108.015 271.1 107.714 270.983 107.432C270.867 107.151 270.696 106.895 270.48 106.68C270.265 106.464 270.009 106.293 269.728 106.177C269.446 106.06 269.145 106 268.84 106H267.18C266.565 106 265.975 106.244 265.539 106.68C265.104 107.115 264.86 107.705 264.86 108.32H262.86C262.66 108.317 262.462 108.354 262.277 108.429C262.092 108.503 261.924 108.614 261.782 108.754C261.64 108.894 261.527 109.061 261.45 109.245C261.373 109.43 261.333 109.627 261.333 109.827V116.44C261.333 116.84 261.492 117.223 261.775 117.505C262.057 117.788 262.44 117.947 262.84 117.947H273.16C273.56 117.947 273.943 117.788 274.225 117.505C274.508 117.223 274.667 116.84 274.667 116.44V109.827C274.667 109.427 274.508 109.044 274.225 108.761C273.943 108.479 273.56 108.32 273.16 108.32ZM265.86 108.32C265.86 107.966 266 107.627 266.25 107.377C266.5 107.127 266.84 106.987 267.193 106.987H268.833C269.187 106.987 269.526 107.127 269.776 107.377C270.026 107.627 270.167 107.966 270.167 108.32H265.853H265.86ZM262.84 109.32H273.16C273.294 109.32 273.423 109.373 273.518 109.468C273.613 109.563 273.667 109.692 273.667 109.827V111.94L270.527 112.987C268.872 113.527 267.093 113.56 265.42 113.08L262.333 112.173V109.827C262.333 109.692 262.387 109.563 262.482 109.468C262.577 109.373 262.706 109.32 262.84 109.32ZM273.16 116.947H262.84C262.706 116.947 262.577 116.893 262.482 116.798C262.387 116.703 262.333 116.574 262.333 116.44V113.213L265.147 114.02C266.013 114.27 266.911 114.398 267.813 114.4C268.837 114.4 269.854 114.238 270.827 113.92L273.667 112.987V116.433C273.667 116.5 273.655 116.567 273.63 116.629C273.605 116.692 273.568 116.748 273.521 116.796C273.473 116.844 273.417 116.882 273.355 116.907C273.293 116.933 273.227 116.947 273.16 116.947Z" fill="#00C6D7"/>
<rect x="288" y="108" width="80" height="8" rx="4" fill="white"/>
<path d="M248 132H416V288C416 296.837 408.837 304 400 304H264C255.163 304 248 296.837 248 288V132Z" fill="white"/>
<path d="M256 152C256 145.373 261.373 140 268 140H340C346.627 140 352 145.373 352 152V160C352 166.627 346.627 172 340 172H256V152Z" fill="#E7EDF4"/>
<rect x="264" y="148" width="80" height="6" rx="3" fill="#8CA0B3"/>
<rect x="264" y="158" width="33" height="6" rx="3" fill="#8CA0B3"/>
<path d="M256 180H356C362.627 180 368 185.373 368 192V244C368 250.627 362.627 256 356 256H268C261.373 256 256 250.627 256 244V180Z" fill="#E7EDF4"/>
<rect x="272" y="196" width="56" height="6" rx="3" fill="#8CA0B3"/>
<path opacity="0.25" d="M272 218H352" stroke="#8CA0B3" stroke-linecap="round"/>
<rect x="272" y="234" width="80" height="6" rx="3" fill="#8CA0B3"/>
<rect x="256" y="272" width="152" height="24" rx="6" fill="#F3F6FA"/>
<rect x="424" y="264" width="40" height="40" rx="20" fill="#00C6D7"/>
<path d="M444.999 283.914L450.619 278.294C450.76 278.148 450.837 277.952 450.833 277.75C450.829 277.547 450.745 277.354 450.599 277.214C450.453 277.073 450.258 276.996 450.055 277C449.853 277.004 449.66 277.088 449.519 277.234L443.899 282.854L438.279 277.234C438.137 277.101 437.949 277.029 437.755 277.033C437.561 277.036 437.375 277.115 437.238 277.252C437.1 277.39 437.022 277.575 437.018 277.769C437.015 277.964 437.087 278.152 437.219 278.294L442.839 283.914L437.219 289.534C437.079 289.674 437 289.865 437 290.064C437 290.263 437.079 290.453 437.219 290.594C437.36 290.734 437.551 290.813 437.749 290.813C437.948 290.813 438.139 290.734 438.279 290.594L443.899 285.014L449.519 290.634C449.66 290.774 449.851 290.853 450.049 290.853C450.248 290.853 450.439 290.774 450.579 290.634C450.72 290.493 450.799 290.303 450.799 290.104C450.799 289.905 450.72 289.714 450.579 289.574L444.999 283.914Z" fill="white"/>
</g>
<defs>
<filter id="filter0_d_12035_6914" x="224" y="84" width="280" height="244" filterUnits="userSpaceOnUse" color-interpolation-filters="sRGB">
<feFlood flood-opacity="0" result="BackgroundImageFix"/>
<feColorMatrix in="SourceAlpha" type="matrix" values="0 0 0 0 0 0 0 0 0 0 0 0 0 0 0 0 0 0 127 0" result="hardAlpha"/>
<feOffset dx="8" dy="8"/>
<feGaussianBlur stdDeviation="8"/>
<feColorMatrix type="matrix" values="0 0 0 0 0.536667 0 0 0 0 0.584274 0 0 0 0 0.670833 0 0 0 0.25 0"/>
<feBlend mode="normal" in2="BackgroundImageFix" result="effect1_dropShadow_12035_6914"/>
<feBlend mode="normal" in="SourceGraphic" in2="effect1_dropShadow_12035_6914" result="shape"/>
</filter>
</defs>
</svg>
